X: 1
T: Windbroke
R: reel
M: 4/4
L: 1/8
K: Emin
|BEEE G2AB |EABd B2 A2 | BEEE G2AB|cBAG B2 A2|
BEEE G2AB |EABd B2 A2 | edBe ~B3 G |A2BA GFGA :|
|:Begf efde |~e2df e2 ~e2| Begf efga|aagf e2 d2|
Begf efde |~e2df e2 eB | ~c3 A ~B3 G|A2 B2 AGFE:|


Tune 910	Setting 14096

